X:1
T:Title
%%score 1 { 2 | 3 }
L:1/8
Q:1/4=90
M:3/4
K:Ab
V:1 treble nm="Grand Piano, Soprano"
V:2 bass nm="Choir Pad, Malawi, 76.76 D"
V:3 bass 
V:1
 [CE][CA] [Ec]3 [Ec] | [EB][EA] [DF] [CE]3 | [Ec][Ec] [EA]3 [EA] | [Ec][EA] [EB]4 | %4
w: By~Ira~C.~Brackeen,~1922 * * *||||
 [CE][CA] [Ec]3 [Ec] | [EB][EA] [DF] [CE]3 | [EA][EB] [Ec]3 [Ee] | [EA][EB] [EA]4 | %8
w: ||||
 [Ac][Ae] [Ae]3 [Ac] | [Ac][EA] [Ac] [Ac]3 | [Ac][Ae] [Ae]3 [Ac] | [Ac]A [GB]4 | %12
w: ||||
 [CE][CA] [Ec]3 [Ec] | [EB][EA] [DF] [CE]3 | [EA][DF] [CE]3 [CE] | [DF][DG] [CA]4- | [CA]4 z2 |] %17
w: |||||
V:2
 A,A, A,3 A, | CC A, A,3 | A,A, C3 C | A,A, G,4 | A,A, A,3 A, | CC A, A,3 | A,G, A,3 A, | CD C4 | %8
 EC C3 E | EC E E3 | EC C3 E | EE E4 | A,A, A,3 A, | CC A, A,3 | A,A, A,3 A, | G,B, A,4- | %16
 A,4 z2 |] %17
V:3
 A,,A,, A,,3 A,, | A,,A,, A,, A,,3 | A,,A,, A,,3 A,, | A,,C, E,4 | A,,A,, A,,3 A,, | %5
 A,,A,, A,, A,,3 | C,E, z2 z C, | E,E, A,,4 | A,A, A,3 A, | A,A, A, A,3 | A,A, A,3 A, | A,C, E,4 | %12
 A,,A,, A,,3 A,, | A,,A,, A,, A,,3 | C,D, E,3 E, | E,E, A,,4- | A,,4 z2 |] %17

